X: 20
T:Meunier, tu dors
R:---
M:4/4
L:1/4
K:C
V:1
G|c3 e|c3 B/2>c/2|d d/2>d/2 d c/2>d/2|e2 c G|c3 e|c3 B/2>c/2|d d/2>d/2 d e/2>d/2|c
(3e/2e/2e/2 (3e/2e/2e/2 e/2e/2|g/2g/2 (3d/2d/2d/2 (3d/2d/2d/2 g/2g/2|e (3e/2e/2e/2 (3e/2e/2e/2 e/2e/2|g/2g/2 (3d/2d/2d/2 (3d/2d/2d/2 g/2g/2 c2 ||
G/2c/2 c/2c/2 c|c/2e/2 e/2e/2 c|B/2c/2 d/2d/2 d|d/2d/2 c/2d/2 e c|
G/2c/2 c/2c/2 c|c/2e/2 e/2e/2 c|B/2c/2 d/2d/2 d|d/2f/2 e/2d/2 c|]

%%footer $D   Galouvielle-MBe 2006 \nRonde (France)
